static/logos/hubspot-wordmark-color.svg

<svg width="100" height="31" viewBox="0 0 100 31" fill="none" xmlns="http://www.w3.org/2000/svg">
<path d="M10.8302 5.63599V13.6312H3.48491V5.63599H0V24.7218H3.48585V16.986H10.8292V24.7218H14.316V5.63599H10.8302ZM25.4736 18.5529C25.4736 19.3179 25.1697 20.0516 24.6288 20.5926C24.0878 21.1335 23.3542 21.4374 22.5892 21.4374C21.8242 21.4374 21.0905 21.1335 20.5495 20.5926C20.0086 20.0516 19.7047 19.3179 19.7047 18.5529V10.3775H16.3981V18.5529C16.3981 20.1933 17.0497 21.7664 18.2096 22.9263C19.3695 24.0863 20.9426 24.7379 22.583 24.7379C24.2234 24.7379 25.7965 24.0863 26.9564 22.9263C28.1163 21.7664 28.7679 20.1933 28.7679 18.5529V10.3775H25.4736V18.5529ZM49.9745 11.2199C49.9745 9.54351 51.083 9.0124 52.2972 9.0124C53.2764 9.0124 54.5689 9.75767 55.4151 10.6614L57.5802 8.10863C56.4991 6.64636 54.3066 5.63599 52.5113 5.63599C48.9236 5.63599 46.3292 7.73693 46.3292 11.2199C46.3292 17.6822 54.2274 15.6312 54.2274 19.2482C54.2274 20.3633 53.1443 21.3482 51.9047 21.3482C49.9491 21.3482 49.3151 20.3926 48.417 19.3812L46.0132 21.8803C47.5509 23.7671 49.4472 24.7256 51.7179 24.7256C55.1264 24.7256 57.8679 22.5992 57.8679 19.2746C57.8679 12.1011 49.9689 14.3303 49.9689 11.2199H49.9745ZM98.8368 21.6728C96.883 21.6728 96.3274 20.8275 96.3274 19.5331V13.802H99.3651V10.8982H96.3274V7.06712L92.9745 8.57183V20.2454C92.9745 23.2313 95.0349 24.736 97.8594 24.736C98.3028 24.7435 98.7462 24.7077 99.1821 24.6303L100 21.619C99.6311 21.6445 99.2075 21.6699 98.8368 21.6699V21.6728ZM38.0604 10.4728C36.4226 10.4728 35.2792 10.9482 34.1736 12.0322V5.75014H30.8623V17.3945C30.8623 21.7529 34.0132 24.7397 37.5547 24.7397C41.483 24.7397 44.9387 21.7001 44.9387 17.6077C44.9387 13.5662 41.7585 10.4756 38.0604 10.4756V10.4728ZM38.0396 21.4067C37.5461 21.4067 37.0575 21.3096 36.6015 21.1207C36.1456 20.9318 35.7312 20.655 35.3823 20.3061C35.0333 19.9571 34.7565 19.5428 34.5676 19.0868C34.3788 18.6309 34.2816 18.1422 34.2816 17.6487C34.2816 17.1552 34.3788 16.6665 34.5676 16.2106C34.7565 15.7546 35.0333 15.3404 35.3823 14.9914C35.7312 14.6425 36.1456 14.3656 36.6015 14.1767C37.0575 13.9879 37.5461 13.8907 38.0396 13.8907C39.0363 13.8907 39.9922 14.2866 40.697 14.9914C41.4017 15.6962 41.7976 16.652 41.7976 17.6487C41.7976 18.6454 41.4017 19.6013 40.697 20.3061C39.9922 21.0108 39.0363 21.4067 38.0396 21.4067ZM74.0226 17.4341C74.0226 13.3341 70.5745 10.302 66.6387 10.302C63.0981 10.302 59.9462 13.2879 59.9462 17.6473V29.2982H63.2575V23.0077C64.3613 24.0897 65.5066 24.5671 67.1424 24.5671C70.8406 24.5671 74.0217 21.4765 74.0217 17.4341H74.0226ZM70.8868 17.3926C70.8868 18.3893 70.4908 19.3451 69.7861 20.0499C69.0813 20.7546 68.1255 21.1506 67.1288 21.1506C66.1321 21.1506 65.1762 20.7546 64.4714 20.0499C63.7667 19.3451 63.3708 18.3893 63.3708 17.3926C63.3708 16.3959 63.7667 15.44 64.4714 14.7353C65.1762 14.0305 66.1321 13.6346 67.1288 13.6346C68.1255 13.6346 69.0813 14.0305 69.7861 14.7353C70.4908 15.44 70.8868 16.3959 70.8868 17.3926Z" fill="#33475B"/>
<path d="M84.719 10.1415V6.81417C85.1587 6.60867 85.531 6.28251 85.7925 5.87366C86.0541 5.4648 86.1941 4.99008 86.1964 4.50474V4.42832C86.1964 3.01323 85.0492 1.86606 83.6341 1.86606H83.5577C82.8782 1.86606 82.2264 2.136 81.7459 2.61652C81.2654 3.09704 80.9954 3.74877 80.9954 4.42832V4.50474C80.9977 4.99008 81.1377 5.4648 81.3992 5.87366C81.6608 6.28251 82.0331 6.60867 82.4728 6.81417V10.1415C81.209 10.3351 80.0188 10.859 79.0228 11.6604L69.8973 4.55285C69.9624 4.31795 69.9964 4.07644 70.0002 3.83398C70.0013 3.26295 69.833 2.70441 69.5167 2.22902C69.2003 1.75363 68.7501 1.38274 68.2229 1.16327C67.6957 0.943786 67.1153 0.885594 66.5551 0.99604C65.9948 1.10647 65.4799 1.3806 65.0754 1.78372C64.671 2.18684 64.3952 2.70085 64.2829 3.26074C64.1706 3.82063 64.227 4.40124 64.4447 4.92912C64.6624 5.45701 65.0319 5.90846 65.5062 6.22637C65.9805 6.54428 66.5386 6.71436 67.1096 6.71512C67.6091 6.71276 68.0994 6.57939 68.5313 6.32832L77.5171 13.3207C76.7099 14.5403 76.2887 15.9747 76.3087 17.437C76.3285 18.8993 76.7884 20.3218 77.6285 21.5188L74.8954 24.2528C74.6745 24.1822 74.4443 24.1447 74.2124 24.1415C73.7437 24.1419 73.2855 24.2812 72.896 24.5419C72.5064 24.8025 72.2028 25.1728 72.0237 25.6059C71.8444 26.039 71.7976 26.5155 71.8892 26.9753C71.9807 27.435 72.2065 27.8572 72.5379 28.1887C72.8694 28.5201 73.2916 28.7458 73.7513 28.8374C74.211 28.9289 74.6875 28.8821 75.1206 28.7029C75.5538 28.5237 75.924 28.2202 76.1847 27.8305C76.4454 27.441 76.5847 26.9829 76.5851 26.5141C76.582 26.2822 76.5445 26.0521 76.4738 25.8311L79.1775 23.1264C80.0592 23.8053 81.0845 24.2732 82.175 24.4945C83.2654 24.7157 84.3921 24.6845 85.4687 24.4031C86.5452 24.1218 87.5431 23.5976 88.3857 22.871C89.2285 22.1444 89.8937 21.2346 90.3304 20.2112C90.7671 19.1878 90.9638 18.078 90.9054 16.9669C90.8471 15.8556 90.5351 14.7726 89.9935 13.8006C89.4518 12.8287 88.6949 11.9936 87.7806 11.3593C86.8664 10.7251 85.8191 10.3085 84.719 10.1415ZM83.5983 21.0849C83.0986 21.0987 82.6012 21.0121 82.1355 20.8304C81.6699 20.6487 81.2454 20.3754 80.8871 20.0269C80.5288 19.6783 80.2439 19.2615 80.0495 18.8009C79.855 18.3404 79.7548 17.8456 79.7548 17.3457C79.7548 16.8459 79.855 16.3511 80.0495 15.8906C80.2439 15.4301 80.5288 15.0133 80.8871 14.6647C81.2454 14.3161 81.6699 14.0429 82.1355 13.8611C82.6012 13.6794 83.0986 13.5929 83.5983 13.6066C84.5668 13.6405 85.4842 14.0489 86.1575 14.7459C86.8308 15.4429 87.2074 16.3739 87.2079 17.343C87.2084 18.3121 86.8328 19.2435 86.1602 19.9411C85.4876 20.6387 84.5704 21.0482 83.6021 21.083" fill="#FF7A59"/>
</svg>

<svg xmlns="http://www.w3.org/2000/svg" width="206.452" height="64" fill="none" viewBox="0 0 100 31"><path fill="#33475B" d="M10.83 5.636v7.995H3.485V5.636H0v19.086h3.486v-7.736h7.343v7.736h3.487V5.636H10.83Zm14.644 12.917a2.885 2.885 0 0 1-5.77 0v-8.176h-3.306v8.176a6.185 6.185 0 1 0 12.37 0v-8.176h-3.294v8.176Zm24.5-7.333c0-1.676 1.109-2.208 2.323-2.208.98 0 2.272.746 3.118 1.65l2.165-2.553c-1.08-1.463-3.273-2.473-5.069-2.473-3.587 0-6.182 2.1-6.182 5.584 0 6.462 7.898 4.411 7.898 8.028 0 1.115-1.083 2.1-2.322 2.1-1.956 0-2.59-.955-3.488-1.967l-2.404 2.5c1.538 1.886 3.434 2.845 5.705 2.845 3.408 0 6.15-2.127 6.15-5.451 0-7.174-7.9-4.945-7.9-8.055h.006Zm48.863 10.453c-1.954 0-2.51-.845-2.51-2.14v-5.731h3.038v-2.904h-3.038v-3.83l-3.352 1.504v11.673c0 2.986 2.06 4.491 4.884 4.491.444.008.887-.028 1.323-.106L100 21.62c-.369.026-.793.05-1.163.05v.004Zm-60.777-11.2c-1.637 0-2.78.475-3.886 1.56V5.75h-3.312v11.645c0 4.358 3.151 7.345 6.693 7.345 3.928 0 7.384-3.04 7.384-7.132 0-4.042-3.18-7.132-6.879-7.132v-.003Zm-.02 10.934a3.757 3.757 0 1 1 0-7.515 3.757 3.757 0 0 1 0 7.515Zm35.983-3.973c0-4.1-3.448-7.132-7.384-7.132-3.54 0-6.693 2.986-6.693 7.345v11.651h3.312v-6.29c1.103 1.082 2.249 1.56 3.884 1.56 3.699 0 6.88-3.091 6.88-7.134Zm-3.136-.041a3.758 3.758 0 1 1-7.517 0 3.758 3.758 0 0 1 7.517 0Z"/><path fill="#FF7A59" d="M84.719 10.142V6.814a2.562 2.562 0 0 0 1.477-2.31v-.076a2.562 2.562 0 0 0-2.562-2.562h-.076a2.562 2.562 0 0 0-2.563 2.562v.077a2.563 2.563 0 0 0 1.478 2.31v3.327a7.256 7.256 0 0 0-3.45 1.518l-9.126-7.107c.065-.235.1-.477.103-.719a2.887 2.887 0 1 0-2.89 2.881c.5-.002.99-.136 1.421-.387l8.986 6.993a7.278 7.278 0 0 0 .112 8.198l-2.734 2.734a2.35 2.35 0 0 0-.683-.111 2.37 2.37 0 1 0 2.373 2.372 2.344 2.344 0 0 0-.111-.683l2.703-2.705a7.29 7.29 0 0 0 11.728-6.16 7.29 7.29 0 0 0-6.186-6.825Zm-1.12 10.943a3.74 3.74 0 1 1 0-7.478 3.74 3.74 0 0 1 .003 7.476"/></svg>
